X: 26724
T: Mike Saunders'
R: jig
M: 6/8
K: Dmajor
|:F/A/|fge fdB|AdB A2 D|A,B,D A,B,D|FEE E2 A|
fge fdB|AdB AFD|A,B,D FAG|FDC D2:|
|:f/g/|afd bge|afd g2 c|dAG FDE|FEE E2 f/g/|
afd bge|afd gec|1 dAG FGE|FDD D2:|2 dcB AGF|EDC D2||

